Newaita-dark/apps/32/com.github.artemanufrij.showmypictures.svg

<svg height="32" viewBox="0 0 32 32" width="32" xmlns="http://www.w3.org/2000/svg" xmlns:xlink="http://www.w3.org/1999/xlink"><linearGradient id="a" gradientUnits="userSpaceOnUse" x1="15.87652" x2="15.87652" y1="28.033936" y2="29.35698000003"><stop offset="0" stop-opacity=".27451"/><stop offset="1" stop-opacity="0"/></linearGradient><linearGradient id="b"><stop offset="0" stop-opacity=".313726"/><stop offset=".222222" stop-opacity=".27451"/><stop offset="1" stop-opacity="0"/></linearGradient><radialGradient id="c" cx="450.908936" cy="189.579361" gradientTransform="matrix(.00000017 -.0781325 -.140638 -.0000001 52.130648 63.595333)" gradientUnits="userSpaceOnUse" r="21.166656" xlink:href="#b"/><radialGradient id="d" cx="450.908936" cy="189.579361" gradientTransform="matrix(-.00000017 .0781325 .140638 .0000001 -20.377613 -7.527479)" gradientUnits="userSpaceOnUse" r="21.166656" xlink:href="#b"/><radialGradient id="e" cx="450.908936" cy="189.579361" gradientTransform="matrix(-.00000017 -.0781325 .140638 -.0000001 -20.377613 63.595333)" gradientUnits="userSpaceOnUse" r="21.166656" xlink:href="#b"/><radialGradient id="f" cx="450.908936" cy="189.579361" gradientTransform="matrix(.00000017 .0781325 -.140638 .0000001 52.130646 -7.527479)" gradientUnits="userSpaceOnUse" r="21.166656" xlink:href="#b"/><linearGradient id="g" gradientUnits="userSpaceOnUse" x1="10.58434899997" x2="10.58434899997" y1="28.033934" y2="2.89610500006"><stop offset="0" stop-color="#bdbdbd"/><stop offset="1" stop-color="#e0e0e0"/></linearGradient><linearGradient id="h" gradientUnits="userSpaceOnUse" x1="15.87652306241" x2="15.876524" y1="22.0802375" y2="4.219148"><stop offset="0" stop-color="#e57373"/><stop offset="1" stop-color="#64b5f6"/></linearGradient><linearGradient id="i" gradientUnits="userSpaceOnUse" x1="22.161055375" x2="22.161055375" y1="12.818909" y2="6.86520131661"><stop offset="0" stop-color="#f44336"/><stop offset="1" stop-color="#ef5350"/></linearGradient><linearGradient id="j" gradientUnits="userSpaceOnUse" x1="15.87648" x2="15.87648" y1="21.90703619623" y2="4.70751543548"><stop offset="0" stop-color="#424242"/><stop offset="1" stop-color="#616161"/></linearGradient><linearGradient id="k" gradientUnits="userSpaceOnUse" x1="15.87648" x2="15.87648" y1="21.90703719623" y2="4.70751643548"><stop offset="0" stop-color="#f48fb1"/><stop offset="1" stop-color="#fce4ec"/></linearGradient><path d="m5.953125 27.9375h19.847656v1.46875h-19.847656zm0 0" fill="url(#a)"/><path d="m25.800781 28.035156h2.644531v-1.324218h-2.644531zm0 0" fill="url(#c)"/><path d="m5.953125 28.035156h-2.644531v1.320313h2.644531zm0 0" fill="url(#d)"/><path d="m5.953125 28.035156h-2.644531v-1.324218h2.644531zm0 0" fill="url(#e)"/><path d="m25.800781 28.035156h2.644531v1.320313h-2.644531zm0 0" fill="url(#f)"/><path d="m4.628906 2.894531h22.492188c.730468 0 1.324218.59375 1.324218 1.324219v22.492188c0 .730468-.59375 1.324218-1.324218 1.324218h-22.492188c-.730468 0-1.320312-.59375-1.320312-1.324218v-22.492188c0-.730469.589844-1.324219 1.320312-1.324219zm0 0" fill="url(#g)"/><path d="m4.628906 2.894531c-.730468 0-1.320312.589844-1.320312 1.324219v.164062c0-.730468.589844-1.324218 1.320312-1.320312h22.492188c.734375-.003906 1.324218.589844 1.324218 1.320312v-.164062c0-.734375-.589843-1.324219-1.324218-1.324219zm0 0" fill="#fff"/><path d="m4.628906 27.917969c-.730468 0-1.320312-.589844-1.320312-1.324219v-.164062c0 .734374.589844 1.324218 1.320312 1.324218h22.492188c.734375 0 1.324218-.589844 1.324218-1.324218v.164062c0 .734375-.589843 1.324219-1.324218 1.324219zm0 0" fill-opacity=".196078"/><path d="m74.055428-168.691922h359.840637c11.686384 0 21.185477 9.499093 21.185477 21.185477v359.840637c0 11.686384-9.499093 21.185477-21.185477 21.185477h-359.840637c-11.686384 0-21.122983-9.499093-21.122983-21.185477v-359.840637c0-11.686384 9.436599-21.185477 21.122983-21.185477zm0 0" fill="none" stroke="#212121" stroke-linecap="round" stroke-width="3" transform="matrix(.062506 0 0 .062506 0 13.438783)"/><path d="m5.292969 4.21875h21.167969c.367187 0 .660156.296875.660156.660156v15.878906c0 .363282-.292969.660157-.660156.660157h-21.167969c-.367188 0-.664063-.296875-.664063-.660157v-15.878906c0-.363281.296875-.660156.664063-.660156zm0 0" fill="url(#h)"/><path d="m21.832031 6.867188h.660157c1.460937 0 2.644531 1.332031 2.644531 2.976562 0 1.640625-1.183594 2.976562-2.644531 2.976562h-.660157c-1.464843 0-2.648437-1.335937-2.648437-2.976562 0-1.644531 1.183594-2.976562 2.648437-2.976562zm0 0" fill="url(#i)"/><path d="m10.574219 9.34375c-.171875.003906-.332031.070312-.453125.191406l-5.492188 5.488282v5.734374c0 .367188.296875.660157.664063.660157h21.167969c.367187 0 .660156-.292969.660156-.660157v-5.535156l-4.195313-3.730468c-.269531-.242188-.6875-.214844-.929687.058593l-4.167969 4.765625-6.78125-6.78125c-.125-.125-.292969-.195312-.472656-.191406zm0 0" fill="url(#j)"/><path d="m10.574219 9.34375c-.171875.003906-.332031.070312-.453125.191406l-2.582032 2.582032.730469.859374c.332031.332032 1.292969.347657 2.316407-.332031.652343-.648437 1.441406-.589843 1.984374 0 .769532.714844 1.464844.664063 2.25.664063l-3.773437-3.773438c-.125-.125-.292969-.195312-.472656-.191406zm11.90625 1.984375c-.175781.003906-.355469.078125-.484375.222656l-1.535156 1.757813h.046874c.113282.25.164063 1.15625.660157.660156.847656-.847656.992187-.496094 1.324219-.164062.496093.496093.828124.992187 1.324218.824218.824219-.328125.96875-1.144531.601563-1.808594l-1.492188-1.328124c-.125-.113282-.285156-.167969-.445312-.164063zm0 0" fill="url(#k)"/><g fill="none" stroke-linecap="round" stroke-width="3"><path d="m84.679414-147.506445h338.65516c5.874439 0 10.561491 4.749546 10.561491 10.561491v254.038241c0 5.811945-4.687052 10.561491-10.561491 10.561491h-338.65516c-5.874439 0-10.623986-4.749546-10.623986-10.561491v-254.038241c0-5.811945 4.749547-10.561491 10.623986-10.561491zm0 0" stroke="#212121" transform="matrix(.062506 0 0 .062506 0 13.438783)"/><path d="m221.554093 136.336901c-2.187291-14.248639 15.49852-20.748019 7.43679.812422-7.12432 18.873198-16.623412 19.685621-16.43593 14.811086.812422-6.936837 9.436598-3.437172 15.81099-2.562255 8.499188.999904 16.810894-11.123938 16.248448-19.248162" stroke="#1a237e" stroke-linejoin="round" transform="matrix(.062506 0 0 .062506 5.292172 16.41563)"/><path d="m239.17741 128.337665c4.437077-14.373627 28.622267-20.935501 20.560537.562446-7.061826 18.935692-18.685716 18.74821-19.935596 14.123651-1.187387-4.624558 4.937028-12.936264 4.81204-12.87377" stroke="#1a237e" stroke-linejoin="round" transform="matrix(.062506 0 0 .062506 5.292172 16.41563)"/><path d="m265.36241 121.338333c17.623317-4.749546 15.061062-11.436408 14.436121-13.748687-9.749069 19.06068-10.623985 35.621599-9.936551 30.68457" stroke="#1a237e" stroke-linejoin="round" transform="matrix(.062506 0 0 .062506 5.292172 16.41563)"/><path d="m285.298006 112.714157c.187482-11.62389 19.185668-8.686671 9.186623 1.312375-8.249213 8.311706-19.37315 12.936264-15.248544 19.248161 5.124511 6.874344 18.873198-3.437171 12.186336-9.874057-6.436885-5.686957-7.811754-7.811754-8.436694-10.061539" stroke="#1a237e" stroke-linejoin="round" transform="matrix(.062506 0 0 .062506 5.292172 16.41563)"/><path d="m214.304786 166.021566c52.932445-26.434975 113.801632-26.434975 100.552897-21.185477" stroke="#1a237e" stroke-linejoin="round" transform="matrix(.062506 0 0 .062506 5.292172 16.41563)"/></g></svg>

<?xml version="1.0" encoding="UTF-8"?>
<svg xmlns="http://www.w3.org/2000/svg" xmlns:xlink="http://www.w3.org/1999/xlink" width="32px" height="32px" viewBox="0 0 32 32" version="1.1">
<defs>
<linearGradient id="linear0" gradientUnits="userSpaceOnUse" x1="254" y1="233.5" x2="254" y2="254.666672" gradientTransform="matrix(0.062506,0,0,0.062506,-0.00000381506,13.438785)">
<stop offset="0" style="stop-color:rgb(0%,0%,0%);stop-opacity:0.27451;"/>
<stop offset="1" style="stop-color:rgb(0%,0%,0%);stop-opacity:0;"/>
</linearGradient>
<radialGradient id="radial0" gradientUnits="userSpaceOnUse" cx="450.908936" cy="189.579361" fx="450.908936" fy="189.579361" r="21.166656" gradientTransform="matrix(0.00000017417,-0.0781325,-0.140638,-0.000000101539,52.130648,63.595333)">
<stop offset="0" style="stop-color:rgb(0%,0%,0%);stop-opacity:0.313726;"/>
<stop offset="0.222222" style="stop-color:rgb(0%,0%,0%);stop-opacity:0.27451;"/>
<stop offset="1" style="stop-color:rgb(0%,0%,0%);stop-opacity:0;"/>
</radialGradient>
<radialGradient id="radial1" gradientUnits="userSpaceOnUse" cx="450.908936" cy="189.579361" fx="450.908936" fy="189.579361" r="21.166656" gradientTransform="matrix(-0.00000017417,0.0781325,0.140638,0.000000101539,-20.377613,-7.527479)">
<stop offset="0" style="stop-color:rgb(0%,0%,0%);stop-opacity:0.313726;"/>
<stop offset="0.222222" style="stop-color:rgb(0%,0%,0%);stop-opacity:0.27451;"/>
<stop offset="1" style="stop-color:rgb(0%,0%,0%);stop-opacity:0;"/>
</radialGradient>
<radialGradient id="radial2" gradientUnits="userSpaceOnUse" cx="450.908936" cy="189.579361" fx="450.908936" fy="189.579361" r="21.166656" gradientTransform="matrix(-0.00000017417,-0.0781325,0.140638,-0.000000101539,-20.377613,63.595333)">
<stop offset="0" style="stop-color:rgb(0%,0%,0%);stop-opacity:0.313726;"/>
<stop offset="0.222222" style="stop-color:rgb(0%,0%,0%);stop-opacity:0.27451;"/>
<stop offset="1" style="stop-color:rgb(0%,0%,0%);stop-opacity:0;"/>
</radialGradient>
<radialGradient id="radial3" gradientUnits="userSpaceOnUse" cx="450.908936" cy="189.579361" fx="450.908936" fy="189.579361" r="21.166656" gradientTransform="matrix(0.00000017417,0.0781325,-0.140638,0.000000101539,52.130646,-7.527479)">
<stop offset="0" style="stop-color:rgb(0%,0%,0%);stop-opacity:0.313726;"/>
<stop offset="0.222222" style="stop-color:rgb(0%,0%,0%);stop-opacity:0.27451;"/>
<stop offset="1" style="stop-color:rgb(0%,0%,0%);stop-opacity:0;"/>
</radialGradient>
<linearGradient id="linear1" gradientUnits="userSpaceOnUse" x1="169.333328" y1="233.5" x2="169.333328" y2="-168.666656" gradientTransform="matrix(0.062506,0,0,0.062506,0,13.438783)">
<stop offset="0" style="stop-color:rgb(74.117649%,74.117649%,74.117649%);stop-opacity:1;"/>
<stop offset="1" style="stop-color:rgb(87.843138%,87.843138%,87.843138%);stop-opacity:1;"/>
</linearGradient>
<linearGradient id="linear2" gradientUnits="userSpaceOnUse" x1="253.999985" y1="138.25" x2="254" y2="-147.5" gradientTransform="matrix(0.062506,0,0,0.062506,0,13.438783)">
<stop offset="0" style="stop-color:rgb(89.803922%,45.09804%,45.09804%);stop-opacity:1;"/>
<stop offset="1" style="stop-color:rgb(39.215687%,70.980394%,96.470588%);stop-opacity:1;"/>
</linearGradient>
<linearGradient id="linear3" gradientUnits="userSpaceOnUse" x1="301.625" y1="-84" x2="301.625" y2="-136.916672" gradientTransform="matrix(0.112511,0,0,0.112511,-11.775075,22.269833)">
<stop offset="0" style="stop-color:rgb(95.686275%,26.274511%,21.176471%);stop-opacity:1;"/>
<stop offset="1" style="stop-color:rgb(93.725491%,32.549021%,31.37255%);stop-opacity:1;"/>
</linearGradient>
<linearGradient id="linear4" gradientUnits="userSpaceOnUse" x1="960" y1="1295.118164" x2="960" y2="255.118118" gradientTransform="matrix(0.016538,0,0,0.016538,0.000000268776,0.488372)">
<stop offset="0" style="stop-color:rgb(25.882354%,25.882354%,25.882354%);stop-opacity:1;"/>
<stop offset="1" style="stop-color:rgb(38.039216%,38.039216%,38.039216%);stop-opacity:1;"/>
</linearGradient>
<linearGradient id="linear5" gradientUnits="userSpaceOnUse" x1="960" y1="1295.118164" x2="960" y2="255.118118" gradientTransform="matrix(0.016538,0,0,0.016538,0.000000268776,0.488373)">
<stop offset="0" style="stop-color:rgb(95.686275%,56.078434%,69.411767%);stop-opacity:1;"/>
<stop offset="1" style="stop-color:rgb(98.823529%,89.411765%,92.54902%);stop-opacity:1;"/>
</linearGradient>
</defs>
<g id="surface1">
<path style=" stroke:none;fill-rule:nonzero;fill:url(#linear0);" d="M 5.953125 27.9375 L 25.800781 27.9375 L 25.800781 29.40625 L 5.953125 29.40625 Z M 5.953125 27.9375 "/>
<path style=" stroke:none;fill-rule:nonzero;fill:url(#radial0);" d="M 25.800781 28.035156 L 28.445312 28.035156 L 28.445312 26.710938 L 25.800781 26.710938 Z M 25.800781 28.035156 "/>
<path style=" stroke:none;fill-rule:nonzero;fill:url(#radial1);" d="M 5.953125 28.035156 L 3.308594 28.035156 L 3.308594 29.355469 L 5.953125 29.355469 Z M 5.953125 28.035156 "/>
<path style=" stroke:none;fill-rule:nonzero;fill:url(#radial2);" d="M 5.953125 28.035156 L 3.308594 28.035156 L 3.308594 26.710938 L 5.953125 26.710938 Z M 5.953125 28.035156 "/>
<path style=" stroke:none;fill-rule:nonzero;fill:url(#radial3);" d="M 25.800781 28.035156 L 28.445312 28.035156 L 28.445312 29.355469 L 25.800781 29.355469 Z M 25.800781 28.035156 "/>
<path style=" stroke:none;fill-rule:nonzero;fill:url(#linear1);" d="M 4.628906 2.894531 L 27.121094 2.894531 C 27.851562 2.894531 28.445312 3.488281 28.445312 4.21875 L 28.445312 26.710938 C 28.445312 27.441406 27.851562 28.035156 27.121094 28.035156 L 4.628906 28.035156 C 3.898438 28.035156 3.308594 27.441406 3.308594 26.710938 L 3.308594 4.21875 C 3.308594 3.488281 3.898438 2.894531 4.628906 2.894531 Z M 4.628906 2.894531 "/>
<path style=" stroke:none;fill-rule:nonzero;fill:rgb(100%,100%,100%);fill-opacity:1;" d="M 4.628906 2.894531 C 3.898438 2.894531 3.308594 3.484375 3.308594 4.21875 L 3.308594 4.382812 C 3.308594 3.652344 3.898438 3.058594 4.628906 3.0625 L 27.121094 3.0625 C 27.855469 3.058594 28.445312 3.652344 28.445312 4.382812 L 28.445312 4.21875 C 28.445312 3.484375 27.855469 2.894531 27.121094 2.894531 Z M 4.628906 2.894531 "/>
<path style=" stroke:none;fill-rule:nonzero;fill:rgb(0%,0%,0%);fill-opacity:0.196078;" d="M 4.628906 27.917969 C 3.898438 27.917969 3.308594 27.328125 3.308594 26.59375 L 3.308594 26.429688 C 3.308594 27.164062 3.898438 27.753906 4.628906 27.753906 L 27.121094 27.753906 C 27.855469 27.753906 28.445312 27.164062 28.445312 26.429688 L 28.445312 26.59375 C 28.445312 27.328125 27.855469 27.917969 27.121094 27.917969 Z M 4.628906 27.917969 "/>
<path style="fill:none;stroke-width:3;stroke-linecap:round;stroke-linejoin:miter;stroke:rgb(12.941177%,12.941177%,12.941177%);stroke-opacity:1;stroke-miterlimit:4;" d="M 74.055428 -168.691922 L 433.896065 -168.691922 C 445.582449 -168.691922 455.081542 -159.192829 455.081542 -147.506445 L 455.081542 212.334192 C 455.081542 224.020576 445.582449 233.519669 433.896065 233.519669 L 74.055428 233.519669 C 62.369044 233.519669 52.932445 224.020576 52.932445 212.334192 L 52.932445 -147.506445 C 52.932445 -159.192829 62.369044 -168.691922 74.055428 -168.691922 Z M 74.055428 -168.691922 " transform="matrix(0.062506,0,0,0.062506,0,13.438783)"/>
<path style=" stroke:none;fill-rule:nonzero;fill:url(#linear2);" d="M 5.292969 4.21875 L 26.460938 4.21875 C 26.828125 4.21875 27.121094 4.515625 27.121094 4.878906 L 27.121094 20.757812 C 27.121094 21.121094 26.828125 21.417969 26.460938 21.417969 L 5.292969 21.417969 C 4.925781 21.417969 4.628906 21.121094 4.628906 20.757812 L 4.628906 4.878906 C 4.628906 4.515625 4.925781 4.21875 5.292969 4.21875 Z M 5.292969 4.21875 "/>
<path style=" stroke:none;fill-rule:nonzero;fill:url(#linear3);" d="M 21.832031 6.867188 L 22.492188 6.867188 C 23.953125 6.867188 25.136719 8.199219 25.136719 9.84375 C 25.136719 11.484375 23.953125 12.820312 22.492188 12.820312 L 21.832031 12.820312 C 20.367188 12.820312 19.183594 11.484375 19.183594 9.84375 C 19.183594 8.199219 20.367188 6.867188 21.832031 6.867188 Z M 21.832031 6.867188 "/>
<path style=" stroke:none;fill-rule:nonzero;fill:url(#linear4);" d="M 10.574219 9.34375 C 10.402344 9.347656 10.242188 9.414062 10.121094 9.535156 L 4.628906 15.023438 L 4.628906 20.757812 C 4.628906 21.125 4.925781 21.417969 5.292969 21.417969 L 26.460938 21.417969 C 26.828125 21.417969 27.121094 21.125 27.121094 20.757812 L 27.121094 15.222656 L 22.925781 11.492188 C 22.65625 11.25 22.238281 11.277344 21.996094 11.550781 L 17.828125 16.316406 L 11.046875 9.535156 C 10.921875 9.410156 10.753906 9.339844 10.574219 9.34375 Z M 10.574219 9.34375 "/>
<path style=" stroke:none;fill-rule:nonzero;fill:url(#linear5);" d="M 10.574219 9.34375 C 10.402344 9.347656 10.242188 9.414062 10.121094 9.535156 L 7.539062 12.117188 L 8.269531 12.976562 C 8.601562 13.308594 9.5625 13.324219 10.585938 12.644531 C 11.238281 11.996094 12.027344 12.054688 12.570312 12.644531 C 13.339844 13.359375 14.035156 13.308594 14.820312 13.308594 L 11.046875 9.535156 C 10.921875 9.410156 10.753906 9.339844 10.574219 9.34375 Z M 22.480469 11.328125 C 22.304688 11.332031 22.125 11.40625 21.996094 11.550781 L 20.460938 13.308594 L 20.507812 13.308594 C 20.621094 13.558594 20.671875 14.464844 21.167969 13.96875 C 22.015625 13.121094 22.160156 13.472656 22.492188 13.804688 C 22.988281 14.300781 23.320312 14.796875 23.816406 14.628906 C 24.640625 14.300781 24.785156 13.484375 24.417969 12.820312 L 22.925781 11.492188 C 22.800781 11.378906 22.640625 11.324219 22.480469 11.328125 Z M 22.480469 11.328125 "/>
<path style="fill:none;stroke-width:3;stroke-linecap:round;stroke-linejoin:miter;stroke:rgb(12.941177%,12.941177%,12.941177%);stroke-opacity:1;stroke-miterlimit:4;" d="M 84.679414 -147.506445 L 423.334574 -147.506445 C 429.209013 -147.506445 433.896065 -142.756899 433.896065 -136.944954 L 433.896065 117.093287 C 433.896065 122.905232 429.209013 127.654778 423.334574 127.654778 L 84.679414 127.654778 C 78.804975 127.654778 74.055428 122.905232 74.055428 117.093287 L 74.055428 -136.944954 C 74.055428 -142.756899 78.804975 -147.506445 84.679414 -147.506445 Z M 84.679414 -147.506445 " transform="matrix(0.062506,0,0,0.062506,0,13.438783)"/>
<path style="fill:none;stroke-width:3;stroke-linecap:round;stroke-linejoin:round;stroke:rgb(10.196079%,13.725491%,49.411765%);stroke-opacity:1;stroke-miterlimit:4;" d="M 221.554093 136.336901 C 219.366802 122.088262 237.052613 115.588882 228.990883 137.149323 C 221.866563 156.022521 212.367471 156.834944 212.554953 151.960409 C 213.367375 145.023572 221.991551 148.523237 228.365943 149.398154 C 236.865131 150.398058 245.176837 138.274216 244.614391 130.149992 " transform="matrix(0.062506,0,0,0.062506,5.292172,16.41563)"/>
<path style="fill:none;stroke-width:3;stroke-linecap:round;stroke-linejoin:round;stroke:rgb(10.196079%,13.725491%,49.411765%);stroke-opacity:1;stroke-miterlimit:4;" d="M 239.17741 128.337665 C 243.614487 113.964038 267.799677 107.402164 259.737947 128.900111 C 252.676121 147.835803 241.052231 147.648321 239.802351 143.023762 C 238.614964 138.399204 244.739379 130.087498 244.614391 130.149992 " transform="matrix(0.062506,0,0,0.062506,5.292172,16.41563)"/>
<path style="fill:none;stroke-width:3;stroke-linecap:round;stroke-linejoin:round;stroke:rgb(10.196079%,13.725491%,49.411765%);stroke-opacity:1;stroke-miterlimit:4;" d="M 265.36241 121.338333 C 282.985727 116.588787 280.423472 109.901925 279.798531 107.589646 C 270.049462 126.650326 269.174546 143.211245 269.86198 138.274216 " transform="matrix(0.062506,0,0,0.062506,5.292172,16.41563)"/>
<path style="fill:none;stroke-width:3;stroke-linecap:round;stroke-linejoin:round;stroke:rgb(10.196079%,13.725491%,49.411765%);stroke-opacity:1;stroke-miterlimit:4;" d="M 285.298006 112.714157 C 285.485488 101.090267 304.483674 104.027486 294.484629 114.026532 C 286.235416 122.338238 275.111479 126.962796 279.236085 133.274693 C 284.360596 140.149037 298.109283 129.837522 291.422421 123.400636 C 284.985536 117.713679 283.610667 115.588882 282.985727 113.339097 " transform="matrix(0.062506,0,0,0.062506,5.292172,16.41563)"/>
<path style="fill:none;stroke-width:3;stroke-linecap:round;stroke-linejoin:round;stroke:rgb(10.196079%,13.725491%,49.411765%);stroke-opacity:1;stroke-miterlimit:4;" d="M 214.304786 166.021566 C 267.237231 139.586591 328.106418 139.586591 314.857683 144.836089 " transform="matrix(0.062506,0,0,0.062506,5.292172,16.41563)"/>
</g>
</svg>
